storage/app/icons/phosphoricons/fill/gender-male-fill.svg

<svg xmlns="http://www.w3.org/2000/svg" fill="currentColor" viewBox="0 0 256 256"><path d="M152 140a36 36 0 1 1-36-36 36 36 0 0 1 36 36m64-100v176a16 16 0 0 1-16 16H56a16 16 0 0 1-16-16V40a16 16 0 0 1 16-16h144a16 16 0 0 1 16 16m-24 32a8 8 0 0 0-8-8h-32a8 8 0 0 0 0 16h12.69l-18 18A52.08 52.08 0 1 0 158 109.35l18-18V104a8 8 0 0 0 16 0Z"/></svg>

<svg xmlns="http://www.w3.org/2000/svg" viewBox="0 0 256 256" fill="currentColor"><path d="M152,140a36,36,0,1,1-36-36A36,36,0,0,1,152,140ZM216,40V216a16,16,0,0,1-16,16H56a16,16,0,0,1-16-16V40A16,16,0,0,1,56,24H200A16,16,0,0,1,216,40ZM192,72a8,8,0,0,0-8-8H152a8,8,0,0,0,0,16h12.69l-18,18A52.08,52.08,0,1,0,158,109.35l18-18V104a8,8,0,0,0,16,0Z"/></svg>
